X: 26389
T: Merry Days Of Easter, The
R: reel
M: 4/4
K: Gmajor
B~G3 D~G3|(3Bcd gd cAAc|B~G3 D~G3|Bdgd BGGA|
BzBG c2BA|(3Bcd gd cA Ac|B~G3 DGGz|Bdgd (3Bcd ga|
bgaf gbag|e~a3 eaab|c'baf gbfd|(3Bcd ef~g3z|
bgaf gbag|e~a3 eaab|c'zba agfd|~g3z gedc|
B~G3 D~G3|(3Bcd gd cAAc|B~G3 D~G3|(3Bcd gd BGGA|
BzBG c2BA|(3Bcd gd cAAz|B~G3 DGBD|(3Bcd gd Bdga|
bdad gbag|e~a3 eaab|baaf gbfd|(3Bcd ef gzga|
bgaf ~g3b|e~a3 eaab|c'zba agfd|~g3z gedc|
BDAD ~G3z|BDAD cAAc|B~G3 D~G3|(3Bcd gd BGGA|
BzBG c2BA|(3Bcd gd cAAc|B~G3 D~G3|(3Bcd gd Bdga|
bzaf gbag|e~a3 eaab|c'baf gbfd|(3Bcd ef~g3z|
aggf (3gfe ed|e~a3 eaab|c'zba agfd|~g3z gedc|
B~G3 D~G3|(3Bcd gd cAAc|B~G3 D~G3|Bzgd BGGA|
B2BG c2BA|(3Bcd gd cAAz|B~G3 DGBD|(3Bcd gd Bdga|
bzaf gbag|e~a3 eaab|c'baf gbfd|(3Bcd ef~g3z|
aggf (3gfe ed|e~a3 eaab|c'z ba agfd|g2za gedB|G3||

